X:379
T:Snug in the Blanket
T:Cailleach a Sh\'usa
T:Hag in the Blanket, The
R:jig
H:See also #432
D:Kevin Crawford: In Good Company
Z:id:hn-jig-379
M:6/8
L:1/8
K:Dmix
A2B cBc|EFE c2A|BAG AFD|G2A BAG|
A2B cBc|EFE c2A|B/c/dB cAF|GAB BAG:|
|:FGA AFd|AFd AFD|FGA AFD|GAB BAG|
FGA AFd|AFd ABc|~B3 cAF|G2A BAG:|
|:FGA AFA|~D3 AFD|FGA AFD|GAB BAG|
FGA AFA|~D3 ABc|~B3 cAF|G2A BAG:|

